modules/hawcons-stroke/icons/file-c.svg

<?xml version="1.0" encoding="UTF-8" standalone="no"?>
<svg width="32px" height="32px" viewBox="0 0 32 32" version="1.1" xmlns="http://www.w3.org/2000/svg" xmlns:xlink="http://www.w3.org/1999/xlink" xmlns:sketch="http://www.bohemiancoding.com/sketch/ns">
    <!-- Generator: Sketch 3.0.3 (7891) - http://www.bohemiancoding.com/sketch -->
    <title>icon 23 file c</title>
    <desc>Created with Sketch.</desc>
    <defs></defs>
    <g id="Page-1" stroke="none" stroke-width="1" fill="none" fill-rule="evenodd" sketch:type="MSPage">
        <g id="icon-23-file-c" sketch:type="MSArtboardGroup" fill="#929292">
            <path d="M8.00684834,10 C6.34621185,10 5,11.3422643 5,12.9987856 L5,20.0012144 C5,21.6573979 6.33599155,23 8.00684834,23 L24.9931517,23 C26.6537881,23 28,21.6577357 28,20.0012144 L28,12.9987856 C28,11.3426021 26.6640085,10 24.9931517,10 L8.00684834,10 L8.00684834,10 Z M7.99456145,11 C6.89299558,11 6,11.9001762 6,12.992017 L6,20.007983 C6,21.1081436 6.90234375,22 7.99456145,22 L25.0054385,22 C26.1070044,22 27,21.0998238 27,20.007983 L27,12.992017 C27,11.8918564 26.0976562,11 25.0054385,11 L7.99456145,11 L7.99456145,11 Z M18.9999916,18 C18.9968339,19.1165689 18.1004316,20 16.9951185,20 L16.0048815,20 C14.8938998,20 14,19.1019194 14,17.9940809 L14,15.0059191 C14,13.8865548 14.897616,13 16.0048815,13 L16.9951185,13 C18.1041209,13 18.9968142,13.8948834 18.9999915,15 L18,15 C18,14.4476291 17.5573397,14 17.0010434,14 L15.9989566,14 C15.4472481,14 15,14.4437166 15,14.9998075 L15,18.0001925 C15,18.5523709 15.4426603,19 15.9989566,19 L17.0010434,19 C17.5527519,19 18,18.5562834 18,18.0001925 L18.9999923,18 L18.9999916,18 L18.9999916,18 Z" id="file-c" sketch:type="MSShapeGroup"></path>
        </g>
    </g>
</svg>

<svg width="32" height="32" viewBox="0 0 32 32" xmlns="http://www.w3.org/2000/svg"><path d="M8.007 10A3.003 3.003 0 0 0 5 12.999V20A2.996 2.996 0 0 0 8.007 23h16.986A3.003 3.003 0 0 0 28 20.001V13A2.996 2.996 0 0 0 24.993 10H8.007zm-.012 1C6.893 11 6 11.9 6 12.992v7.016A2 2 0 0 0 7.995 22h17.01C26.107 22 27 21.1 27 20.008v-7.016A2 2 0 0 0 25.005 11H7.995zM19 18c-.003 1.117-.9 2-2.005 2h-.99A2.003 2.003 0 0 1 14 17.994v-2.988c0-1.12.898-2.006 2.005-2.006h.99c1.11 0 2.002.895 2.005 2h-1c0-.552-.443-1-.999-1h-1.002A.997.997 0 0 0 15 15v3c0 .552.443 1 .999 1h1.002A.997.997 0 0 0 18 18h1z" fill="#929292" fill-rule="evenodd"/></svg>
